public/avatar/hat/295.svg

<svg xmlns:xlink="http://www.w3.org/1999/xlink" height="92.9" width="100.7" xmlns="http://www.w3.org/2000/svg"><g transform="translate(38.65 49.75)"><use height="20.4" transform="translate(-20.55 -5.2)" width="38.7" xlink:href="#a"/><use height="10.5" transform="translate(-10.4 -4.15)" width="18.4" xlink:href="#b"/><use height="7.2" transform="translate(-19.25 6.65)" width="8.15" xlink:href="#c"/><use height="2.6" transform="translate(1.35 1.35)" width="4" xlink:href="#d"/><use height="10.55" transform="translate(-8.05 -4.05)" width="16.05" xlink:href="#e"/><use height="8.85" transform="translate(-10.05 -4.05)" width="7.75" xlink:href="#f"/><use height="8.55" transform="translate(-10.4 1.25)" width="27.55" xlink:href="#g"/><use height="6.8" transform="translate(-10.2 2.6)" width="27.05" xlink:href="#h"/></g><defs><use height="20.4" width="38.7" xlink:href="#i" id="a"/><use height="10.5" width="18.4" xlink:href="#j" id="b"/><use height="7.2" width="8.15" xlink:href="#k" id="c"/><use height="2.6" width="4" xlink:href="#l" id="d"/><use height="10.55" width="16.05" xlink:href="#m" id="e"/><use height="8.85" width="7.75" xlink:href="#n" id="f"/><use height="8.55" width="27.55" xlink:href="#o" id="g"/><use height="6.8" width="27.05" xlink:href="#p" id="h"/><path d="M18.4 7.65Q14.65 10.1 7.85 10.5L0 10q-.15-4.9 2.65-7.6Q5.1.05 8.95 0q3.7 0 6.45 2.05 2.95 2.2 3 5.6m-7.35.8.25.25 2.3.15q1.55-.25 2.35-.9.65-.45.55-1.1Q15.85 4.4 13.35 5l-.1.05q-2.65.65-2.2 3.4" fill="red" fill-rule="evenodd" id="j"/><path d="M6.95 3.75q-1.7 2.8-2.2 4.45Q1 6.65 0 2.15q4.7.1 7.85-1.15l.3.95-1.2 1.8" fill="#530000" fill-rule="evenodd" transform="translate(0 -1)" id="k"/><path d="M.05 2.6Q-.25.7 1.75.1 3.55-.3 4 1.4q.15.7-1.55 1.15l-2.4.05" fill="#530000" fill-rule="evenodd" id="l"/><path d="M13.7 2.45q2.3 2.1 2.35 5.1Q10.3 11.35 0 10.3q5.1-1.95 7.2-4.55 1.25-1.5 1.65-3.25Q9.2.75 8.4 0q3.15.5 5.3 2.45m-.1 5.4q.65-.45.55-1.1Q13.5 4.3 11 4.9l-.1.05q-2.65.65-2.2 3.4l.25.25 2.3.15q1.55-.25 2.35-.9" fill="#b70000" fill-rule="evenodd" id="m"/><path d="M3.1 5.4Q1.5 7.85 0 8.85 1.35 1 7.75 0 5.35 1.85 3.1 5.4" fill="#ff5959" fill-rule="evenodd" id="n"/><path d="M22.75 3.7q3.3-.05 4.5 2.65-1.5.8-3.7.65l-1.6-.3.05-.05q.6-.75-1.25-2.7l2-.25M22 3.05l-1.8.3-.2-.2q.45-1.3 2.45-2.3 2.7-1.35 5.1-.5-.55 1.75-2.8 3.1L22 3.05M7.95 6q6.85-.45 10.85-2.75 1.8 1.6 2.3 2.9-2.95 2.1-10.45 2.35Q2.85 8.8 0 6.45l.45-.65 7.5.2" fill="#f60" fill-rule="evenodd" id="o"/><path d="M27.05 5q-1.5.8-3.7.65l-1.6-.3.05-.05q.6-.75-1.25-2.7l2.05-.25L23 4q2.6.3 4 .95l.05.05m-5-4.35h-.65l.65.1 3.85.3-1.3 1.05-2.8-.4-1.75.3-.25-.2q.35-.95 1.65-1.8l.6.65m-14.3 4q6.8-.45 10.8-2.75 1.85 1.65 2.35 2.9-1.85 1.35-6.5 2 1.5-1.65 1.6-2.15-10.65 2.1-16 .2l.3-.4 7.45.2" fill="#9f4000" fill-rule="evenodd" id="p"/><g id="i" fill="#2b0000" fill-rule="evenodd"><path d="M29.75 8.25 31 7.1q3.2-2.25 7.1-.85.4.2.3.5-.15 1.6-2.9 3.35 1.75.8 3.05 2.6.3.3 0 .55-1.2 1.5-5.45 1.1l-2.05-.4-3.35 1.1-6.65.95q-8.2.2-11.25-2.05l.8-1.2.3-.45q2.65.45 7.2.15 7.4-.5 11.45-3.15l.2-.15v-.9"/><path d="M29.75 8.25v.9l-.2.15q-4.05 2.65-11.45 3.15-4.55.3-7.2-.15l-.3.45-.8 1.2q-2.45 3.7-3.2 6.15l-.3.3h-.4Q1.1 18.2 0 12.8l.1-.4q.15-.2.4-.2 4.95.15 8.45-1.1-.1-6.6 4.55-9.45Q18.95-1.6 25 1.6q4.35 2.4 4.75 6.65"/></g></defs></svg>

<?xml version="1.0" encoding="UTF-8" standalone="no"?>
<svg xmlns:xlink="http://www.w3.org/1999/xlink" height="92.9px" width="100.7px" xmlns="http://www.w3.org/2000/svg">
  <g transform="matrix(1.0, 0.0, 0.0, 1.0, 38.65, 49.75)">
    <use height="20.4" transform="matrix(1.0, 0.0, 0.0, 1.0, -20.55, -5.2)" width="38.7" xlink:href="#sprite0"/>
    <use height="10.5" transform="matrix(1.0, 0.0, 0.0, 1.0, -10.4, -4.15)" width="18.4" xlink:href="#sprite1"/>
    <use height="7.2" transform="matrix(1.0, 0.0, 0.0, 1.0, -19.25, 6.65)" width="8.15" xlink:href="#sprite2"/>
    <use height="2.6" transform="matrix(1.0, 0.0, 0.0, 1.0, 1.35, 1.35)" width="4.0" xlink:href="#sprite3"/>
    <use height="10.55" transform="matrix(1.0, 0.0, 0.0, 1.0, -8.05, -4.05)" width="16.05" xlink:href="#sprite4"/>
    <use height="8.85" transform="matrix(1.0, 0.0, 0.0, 1.0, -10.05, -4.05)" width="7.75" xlink:href="#sprite5"/>
    <use height="8.55" transform="matrix(1.0, 0.0, 0.0, 1.0, -10.4, 1.25)" width="27.55" xlink:href="#sprite6"/>
    <use height="6.8" transform="matrix(1.0, 0.0, 0.0, 1.0, -10.2, 2.6)" width="27.05" xlink:href="#sprite7"/>
  </g>
  <defs>
    <g id="sprite0" transform="matrix(1.0, 0.0, 0.0, 1.0, 0.0, 0.0)">
      <use height="20.4" transform="matrix(1.0, 0.0, 0.0, 1.0, 0.0, 0.0)" width="38.7" xlink:href="#shape0"/>
    </g>
    <g id="shape0" transform="matrix(1.0, 0.0, 0.0, 1.0, 0.0, 0.0)">
      <path d="M29.75 8.25 L31.0 7.1 Q34.2 4.85 38.1 6.25 38.5 6.45 38.4 6.75 38.25 8.35 35.5 10.1 37.25 10.9 38.55 12.7 38.85 13.0 38.55 13.25 37.35 14.75 33.1 14.35 L31.05 13.95 27.7 15.05 21.05 16.0 Q12.85 16.2 9.8 13.95 L10.6 12.75 10.9 12.3 Q13.55 12.75 18.1 12.45 25.5 11.95 29.55 9.3 L29.75 9.15 29.75 8.85 29.75 8.25" fill="#2b0000" fill-rule="evenodd" stroke="none"/>
      <path d="M29.75 8.25 L29.75 8.85 29.75 9.15 29.55 9.3 Q25.5 11.95 18.1 12.45 13.55 12.75 10.9 12.3 L10.6 12.75 9.8 13.95 Q7.35 17.65 6.6 20.1 L6.3 20.4 5.9 20.4 Q1.1 18.2 0.0 12.8 L0.1 12.4 Q0.25 12.2 0.5 12.2 5.45 12.35 8.95 11.1 8.85 4.5 13.5 1.65 18.95 -1.6 25.0 1.6 29.35 4.0 29.75 8.25" fill="#2b0000" fill-rule="evenodd" stroke="none"/>
    </g>
    <g id="sprite1" transform="matrix(1.0, 0.0, 0.0, 1.0, 0.0, 0.0)">
      <use height="10.5" transform="matrix(1.0, 0.0, 0.0, 1.0, 0.0, 0.0)" width="18.4" xlink:href="#shape1"/>
    </g>
    <g id="shape1" transform="matrix(1.0, 0.0, 0.0, 1.0, 0.0, 0.0)">
      <path d="M18.4 7.65 Q14.65 10.1 7.85 10.5 L0.0 10.0 Q-0.15 5.1 2.65 2.4 5.1 0.05 8.95 0.0 12.65 0.0 15.4 2.05 18.35 4.25 18.4 7.65 M11.05 8.45 L11.3 8.7 13.6 8.85 Q15.15 8.6 15.95 7.95 16.6 7.5 16.5 6.85 15.85 4.4 13.35 5.0 L13.25 5.05 Q10.6 5.7 11.05 8.45" fill="#ff0000" fill-rule="evenodd" stroke="none"/>
    </g>
    <g id="sprite2" transform="matrix(1.0, 0.0, 0.0, 1.0, 0.0, -1.0)">
      <use height="7.2" transform="matrix(1.0, 0.0, 0.0, 1.0, 0.0, 1.0)" width="8.15" xlink:href="#shape2"/>
    </g>
    <g id="shape2" transform="matrix(1.0, 0.0, 0.0, 1.0, 0.0, -1.0)">
      <path d="M6.95 3.75 Q5.25 6.55 4.75 8.2 1.0 6.65 0.0 2.15 4.7 2.25 7.85 1.0 L8.15 1.95 6.95 3.75" fill="#530000" fill-rule="evenodd" stroke="none"/>
    </g>
    <g id="sprite3" transform="matrix(1.0, 0.0, 0.0, 1.0, 0.0, 0.0)">
      <use height="2.6" transform="matrix(1.0, 0.0, 0.0, 1.0, 0.0, 0.0)" width="4.0" xlink:href="#shape3"/>
    </g>
    <g id="shape3" transform="matrix(1.0, 0.0, 0.0, 1.0, 0.0, 0.0)">
      <path d="M0.05 2.6 Q-0.25 0.7 1.75 0.1 3.55 -0.3 4.0 1.4 4.15 2.1 2.45 2.55 L0.05 2.6" fill="#530000" fill-rule="evenodd" stroke="none"/>
    </g>
    <g id="sprite4" transform="matrix(1.0, 0.0, 0.0, 1.0, 0.0, 0.0)">
      <use height="10.55" transform="matrix(1.0, 0.0, 0.0, 1.0, 0.0, 0.0)" width="16.05" xlink:href="#shape4"/>
    </g>
    <g id="shape4" transform="matrix(1.0, 0.0, 0.0, 1.0, 0.0, 0.0)">
      <path d="M13.7 2.45 Q16.0 4.55 16.05 7.55 10.3 11.35 0.0 10.3 5.1 8.35 7.2 5.75 8.45 4.25 8.85 2.5 9.2 0.75 8.4 0.0 11.55 0.5 13.7 2.45 M13.6 7.85 Q14.25 7.4 14.15 6.75 13.5 4.3 11.0 4.9 L10.9 4.95 Q8.25 5.6 8.7 8.35 L8.95 8.6 11.25 8.75 Q12.8 8.5 13.6 7.85" fill="#b70000" fill-rule="evenodd" stroke="none"/>
    </g>
    <g id="sprite5" transform="matrix(1.0, 0.0, 0.0, 1.0, 0.0, 0.0)">
      <use height="8.85" transform="matrix(1.0, 0.0, 0.0, 1.0, 0.0, 0.0)" width="7.75" xlink:href="#shape5"/>
    </g>
    <g id="shape5" transform="matrix(1.0, 0.0, 0.0, 1.0, 0.0, 0.0)">
      <path d="M3.1 5.4 Q1.5 7.85 0.0 8.85 1.35 1.0 7.75 0.0 5.35 1.85 3.1 5.4" fill="#ff5959" fill-rule="evenodd" stroke="none"/>
    </g>
    <g id="sprite6" transform="matrix(1.0, 0.0, 0.0, 1.0, 0.0, 0.0)">
      <use height="8.55" transform="matrix(1.0, 0.0, 0.0, 1.0, 0.0, 0.0)" width="27.55" xlink:href="#shape6"/>
    </g>
    <g id="shape6" transform="matrix(1.0, 0.0, 0.0, 1.0, 0.0, 0.0)">
      <path d="M22.75 3.7 Q26.05 3.65 27.25 6.35 25.75 7.15 23.55 7.0 L21.95 6.7 22.0 6.65 Q22.6 5.9 20.75 3.95 L22.75 3.7 M22.0 3.05 L20.2 3.35 20.0 3.15 Q20.45 1.85 22.45 0.85 25.15 -0.5 27.55 0.35 27.0 2.1 24.75 3.45 L22.0 3.05 M7.95 6.0 Q14.8 5.55 18.8 3.25 20.6 4.85 21.1 6.15 18.15 8.25 10.65 8.5 2.85 8.8 0.0 6.45 L0.45 5.8 7.95 6.0" fill="#ff6600" fill-rule="evenodd" stroke="none"/>
    </g>
    <g id="sprite7" transform="matrix(1.0, 0.0, 0.0, 1.0, 0.0, 0.0)">
      <use height="6.8" transform="matrix(1.0, 0.0, 0.0, 1.0, 0.0, 0.0)" width="27.05" xlink:href="#shape7"/>
    </g>
    <g id="shape7" transform="matrix(1.0, 0.0, 0.0, 1.0, 0.0, 0.0)">
      <path d="M27.05 5.0 Q25.55 5.8 23.35 5.65 L21.75 5.35 21.8 5.3 Q22.4 4.55 20.55 2.6 L22.6 2.35 23.0 4.0 Q25.6 4.3 27.0 4.95 L27.05 5.0 M22.05 0.65 L21.4 0.65 22.05 0.75 25.9 1.05 24.6 2.1 21.8 1.7 20.05 2.0 19.8 1.8 Q20.15 0.85 21.45 0.0 L22.05 0.65 M7.75 4.65 Q14.55 4.2 18.55 1.9 20.4 3.55 20.9 4.8 19.05 6.15 14.4 6.8 15.9 5.15 16.0 4.65 5.35 6.75 0.0 4.85 L0.3 4.45 7.75 4.65" fill="#9f4000" fill-rule="evenodd" stroke="none"/>
    </g>
  </defs>
</svg>
